images/icons/icons.svg

<svg aria-hidden="true" style="position: absolute; width: 0; height: 0; overflow: hidden;" version="1.1" xmlns="http://www.w3.org/2000/svg" xmlns:xlink="http://www.w3.org/1999/xlink">
<defs>
<symbol id="email" viewBox="0 0 32 32">
<path d="M26.667 5.333h-21.333c-1.467 0-2.653 1.2-2.653 2.667l-0.013 16c0 1.467 1.2 2.667 2.667 2.667h21.333c1.467 0 2.667-1.2 2.667-2.667v-16c0-1.467-1.2-2.667-2.667-2.667zM26.133 11l-9.427 5.893c-0.427 0.267-0.987 0.267-1.413 0l-9.427-5.893c-0.333-0.213-0.533-0.573-0.533-0.96 0-0.893 0.973-1.427 1.733-0.96l8.933 5.587 8.933-5.587c0.76-0.467 1.733 0.067 1.733 0.96 0 0.387-0.2 0.747-0.533 0.96z"></path>
</symbol>
<symbol id="send" viewBox="0 0 32 32">
<path d="M32 0l-32 18 10.227 3.788 15.773-14.788-11.998 16.186 0.010 0.004-0.012-0.004v8.814l5.735-6.691 7.265 2.691 5-28z"></path>
</symbol>
<symbol id="person" viewBox="0 0 32 32">
<path d="M16 16c2.947 0 5.333-2.387 5.333-5.333s-2.387-5.333-5.333-5.333c-2.947 0-5.333 2.387-5.333 5.333s2.387 5.333 5.333 5.333zM16 18.667c-3.56 0-10.667 1.787-10.667 5.333v1.333c0 0.733 0.6 1.333 1.333 1.333h18.667c0.733 0 1.333-0.6 1.333-1.333v-1.333c0-3.547-7.107-5.333-10.667-5.333z"></path>
</symbol>
<symbol id="phone" viewBox="0 0 32 32">
<path d="M24.882 19.773l-3.268-0.373c-0.785-0.090-1.557 0.18-2.11 0.733l-2.367 2.367c-3.641-1.853-6.626-4.825-8.478-8.478l2.38-2.38c0.553-0.553 0.823-1.325 0.733-2.11l-0.373-3.242c-0.154-1.299-1.248-2.277-2.56-2.277h-2.226c-1.454 0-2.663 1.209-2.573 2.663 0.682 10.987 9.469 19.761 20.443 20.443 1.454 0.090 2.663-1.119 2.663-2.573v-2.226c0.013-1.299-0.965-2.393-2.264-2.547z"></path>
</symbol>
<symbol id="close-modal" viewBox="0 0 32 32">
<path d="M26.667 7.303l-1.97-1.97-7.808 7.808-7.808-7.808-1.97 1.97 7.808 7.808-7.808 7.808 1.97 1.97 7.808-7.808 7.808 7.808 1.97-1.97-7.808-7.808 7.808-7.808z"></path>
</symbol>
<symbol id="icon-unchecked" viewBox="0 0 34 32">
<path d="M30.341 3.556v24.889h-26.548v-24.889h26.548zM30.341 0h-26.548c-2.086 0-3.793 1.6-3.793 3.556v24.889c0 1.956 1.707 3.556 3.793 3.556h26.548c2.086 0 3.793-1.6 3.793-3.556v-24.889c0-1.956-1.707-3.556-3.793-3.556z"></path>
</symbol>
<symbol id="icon-check" viewBox="0 0 34 32">
<path fill="#2196f3" style="fill: var(--color1, #2196f3)" d="M4.267 0h25.6c2.356 0 4.267 1.91 4.267 4.267v23.467c0 2.356-1.91 4.267-4.267 4.267h-25.6c-2.356 0-4.267-1.91-4.267-4.267v-23.467c0-2.356 1.91-4.267 4.267-4.267z"></path>
<path fill="#fff" style="fill: var(--color2, #fff); stroke: var(--color2, #fff)" stroke="#fff" stroke-linejoin="miter" stroke-linecap="butt" stroke-miterlimit="4" stroke-width="0.4267" d="M8.442 16.537l-0.147-0.14-2.205 2.088 7.767 7.41 16.318-15.567-2.19-2.089-14.128 13.465-5.416-5.167z"></path>
</symbol>
</defs>
</svg>

<svg aria-hidden="true" style="position:absolute;width:0;height:0;overflow:hidden" xmlns="http://www.w3.org/2000/svg"><defs><symbol id="email" viewBox="0 0 32 32"><path d="M26.667 5.333H5.334A2.663 2.663 0 0 0 2.681 8l-.013 16c0 1.467 1.2 2.667 2.667 2.667h21.333c1.467 0 2.667-1.2 2.667-2.667V8c0-1.467-1.2-2.667-2.667-2.667zM26.133 11l-9.427 5.893a1.346 1.346 0 0 1-1.413 0L5.866 11a1.132 1.132 0 1 1 1.2-1.92l8.933 5.587 8.933-5.587a1.132 1.132 0 1 1 1.2 1.92z"/></symbol><symbol id="send" viewBox="0 0 32 32"><path d="M32 0 0 18l10.227 3.788L26 7 14.002 23.186l.01.004-.012-.004V32l5.735-6.691L27 28l5-28z"/></symbol><symbol id="person" viewBox="0 0 32 32"><path d="M16 16c2.947 0 5.333-2.387 5.333-5.333S18.946 5.334 16 5.334c-2.947 0-5.333 2.387-5.333 5.333S13.054 16 16 16zm0 2.667c-3.56 0-10.667 1.787-10.667 5.333v1.333c0 .733.6 1.333 1.333 1.333h18.667c.733 0 1.333-.6 1.333-1.333V24c0-3.547-7.107-5.333-10.667-5.333z"/></symbol><symbol id="phone" viewBox="0 0 32 32"><path d="m24.882 19.773-3.268-.373a2.561 2.561 0 0 0-2.11.733L17.137 22.5a19.357 19.357 0 0 1-8.478-8.478l2.38-2.38a2.561 2.561 0 0 0 .733-2.11l-.373-3.242a2.575 2.575 0 0 0-2.56-2.277H6.613c-1.454 0-2.663 1.209-2.573 2.663.682 10.987 9.469 19.761 20.443 20.443 1.454.09 2.663-1.119 2.663-2.573V22.32a2.55 2.55 0 0 0-2.264-2.547z"/></symbol><symbol id="close-modal" viewBox="0 0 32 32"><path d="m26.667 7.303-1.97-1.97-7.808 7.808-7.808-7.808-1.97 1.97 7.808 7.808-7.808 7.808 1.97 1.97 7.808-7.808 7.808 7.808 1.97-1.97-7.808-7.808 7.808-7.808z"/></symbol><symbol id="icon-unchecked" viewBox="0 0 34 32"><path d="M30.341 3.556v24.889H3.793V3.556h26.548zm0-3.556H3.793C1.707 0 0 1.6 0 3.556v24.889c0 1.956 1.707 3.556 3.793 3.556h26.548c2.086 0 3.793-1.6 3.793-3.556V3.556C34.134 1.6 32.427 0 30.341 0z"/></symbol><symbol id="icon-check" viewBox="0 0 34 32"><path fill="#2196f3" style="fill:var(--color1, #2196f3)" d="M4.267 0h25.6a4.267 4.267 0 0 1 4.267 4.267v23.467a4.267 4.267 0 0 1-4.267 4.267h-25.6A4.267 4.267 0 0 1 0 27.734V4.267A4.267 4.267 0 0 1 4.267 0z"/><path fill="#fff" style="fill:var(--color2, #fff);stroke:var(--color2, #fff)" stroke="#fff" stroke-width=".427" d="m8.442 16.537-.147-.14-2.205 2.088 7.767 7.41 16.318-15.567-2.19-2.089-14.128 13.465-5.416-5.167z"/></symbol></defs></svg>
